dist/uploads/catalog-sidebar-icons/1/i-catalog-6.svg

<svg width="38" height="38" viewBox="0 0 38 38" fill="none" xmlns="http://www.w3.org/2000/svg">
<g clip-path="url(#clip0)">
<path d="M37.1119 7.86328H0.888091C0.39751 7.86328 0 8.26097 0 8.75137V10.5814C0 11.0718 0.39751 11.4695 0.888091 11.4695H2.05682V14.3682V22.8221V27.6087C1.47547 27.9249 1.07992 28.5414 1.07992 29.2483C1.07992 29.7387 1.47743 30.1364 1.96801 30.1364H3.92181C3.92305 30.1366 3.92447 30.1364 3.92536 30.1364C4.41594 30.1364 4.81345 29.7387 4.81345 29.2483C4.81345 29.211 4.81115 29.1743 4.8067 29.138C4.76816 28.4778 4.3838 27.9098 3.83318 27.61V23.71H21.1549V29.2281C21.1549 29.7185 21.5524 30.1162 22.043 30.1162H34.7412C35.2318 30.1162 35.6293 29.7185 35.6293 29.2281V11.4695H37.1121C37.6027 11.4695 38.0002 11.0718 38.0002 10.5814V8.75137C38 8.26097 37.6025 7.86328 37.1119 7.86328ZM33.0498 17.9087V27.1052H23.9321V17.9087H33.0498ZM23.9321 15.2797V11.9881H33.0498V15.2797H23.9321ZM3.833 13.4801V11.4695H21.1547V13.4801H3.833Z" fill="#FFC800"/>
</g>
<defs>
<clipPath id="clip0">
<rect width="38" height="38" fill="white"/>
</clipPath>
</defs>
</svg>

<svg width="38" height="38" fill="none" xmlns="http://www.w3.org/2000/svg"><g clip-path="url(#clip0)"><path d="M37.112 7.863H.888A.888.888 0 0 0 0 8.751v1.83c0 .49.398.889.888.889h1.169v16.139a1.867 1.867 0 0 0-.977 1.64c0 .49.397.887.888.887h1.957a.888.888 0 0 0 .882-.998 1.866 1.866 0 0 0-.974-1.528v-3.9h17.322v5.518c0 .49.397.888.888.888h12.698c.49 0 .888-.398.888-.888V11.47h1.483c.49 0 .888-.397.888-.888v-1.83a.888.888 0 0 0-.888-.888zM33.05 17.91v9.196h-9.118V17.91h9.118zm-9.118-2.63v-3.29h9.118v3.29h-9.118zm-20.099-1.8v-2.01h17.322v2.01H3.833z" fill="#FFC800"/></g><defs><clipPath id="clip0"><path fill="#fff" d="M0 0h38v38H0z"/></clipPath></defs></svg>
